!!!COM: Emberley, Peter
!!!CDT: b.1955
!!!OTL: National Anthem, Gibraltar
!!!ENC: Davis, Matthew J.
!!Vocal Line Only
**kern
*clefG2
*k[f#]
*G:
*M4/4
=1-
4B
=2
2d
4g
4b
=3
2b
4.a
8g
=4
4g
4f#
4e
8B
8c
=5
1d
=6
4B
4d
4.g
8b
=7
4b
4a
4.cc
8cc
=8
8b
8a
4g
4g
4f#
=9
1g
=10
4.a
8d
4d
4cc
=11
4.b
8a
4g
4f#
=12
4f#
8e
8g
4f#
4e
=13
1d
=14
4.g
8e-
4e-
4g
=15
4.fn
8d
2d
=16
4c
8d
8e-
4g
4g
=17
2.f#
4B
=18
2d
4g
4b
=19
2b
4.a
8g
=20
4g
4f#
4e
8B
8c
=21
1d
=22
4B
4d
4.g
8b
=23
4b
4a
4.cc
8cc
=24
8b
8a
4g
4g
4f#
=25
1g
=26
4.a
8d
4d
4cc
=27
4.b
8a
4g
4f#
=28
4f#
8e
8g
4f#
4e
=29
1d
=30
4.g
8e-
4e-
4g
=31
4.fn
8d
4d
4f#
=32
4c
8d
8e-
4g
4g
=33
2.f#
4B
=34
2d
4g
4b
=35
2b
4.a
8g
=36
4g
4f#
4e
8B
8c
=37
1d
=38
4B
4d
4.g
8b
=39
4b
4a
4.cc
8cc
=40
8b
8a
[2g
8g]
8cc
=41
8b
8a
4g
4g
4f#
=42
1g
==|!
*-
